fa/svgs/regular/face-grin-tears.svg

<svg xmlns="http://www.w3.org/2000/svg" viewBox="0 0 640 512"><!--! Font Awesome Free 6.1.1 by @fontawesome - https://fontawesome.com License - https://fontawesome.com/license/free (Icons: CC BY 4.0, Fonts: SIL OFL 1.1, Code: MIT License) Copyright 2022 Fonticons, Inc.--><path d="M519.4 334.4c3.3 8.1 8.4 17.7 16.5 26.7 4 3.9 8.2 7.3 12.7 10.3C506.4 454.8 419.9 512 319.1 512c-99 0-185.5-57.2-227.7-140.6 4.47-3 8.7-6.4 12.7-10.3 8.1-9 13.2-18.6 16.5-26.7 1.2-2.9 2.3-5.8 3.3-8.9C152.5 406.2 229.5 464 319.1 464c91.4 0 168.4-57.8 197-138.5 1 3.1 2.1 6 3.3 8.9zM319.1 47.1c-100.5 0-184.9 73.4-203.4 169.4-6.6-3.1-14.3-4.3-22.3-3.2-6.81 1-16.22 2.4-26.56 4.4C85.31 94.5 191.6 0 319.1 0c129.3 0 235.6 94.5 254.1 217.7-10.4-2-19.8-3.4-26.6-4.4-8-1.1-15.7.1-22.4 3.2C505.8 120.5 421.4 48 319.1 48v-.9zm-240.6 294c-18.52 15.6-46.49 14.4-64.23-3.4-18.712-18.7-19.095-48.8-.72-67.1 8.64-8.7 30.14-15.2 50.5-20.5 12.97-1.9 25.48-3.9 33.89-5.1 5.36-.8 9.86 3.7 8.16 9.1-2.2 21.5-10.52 70.2-24.67 84.3-.94 1-1.92 1.9-2.93 2.7zm483 0c-.8-.6-2.4-1.3-2.3-2-.2-.2-.4-.4-.6-.7-14.2-14.1-22.5-62.8-25.6-84.3-.8-5.4 3.7-9.9 9.1-9.1 1 .2 2.1.3 3.3.5 8.2 1.2 19.2 3 29.7 4.6 21.2 5.3 42.7 11.8 51.3 20.5 18.4 18.3 18 48.4-.7 67.1-18.6 17.8-45.7 19-64.2 3.4zm-241.6 58c-50.3 0-94.4-24.5-119-62.6-10.4-16.1 6.8-33.4 25.4-28.1 29 6.7 60.5 10.4 93.6 10.4 33.1 0 64.7-3.7 93.6-10.4 18.7-5.3 35.9 12 24.6 28.1-23.7 38.1-67.8 62.6-118.2 62.6zm-38.3-170.3-.2-.3c-.2-.2-.4-.5-.7-.9-.7-.8-1.6-1.9-2.8-3.3-2.5-2.9-6-6.6-10.2-11.2-8.8-6.9-18.9-13.1-28.6-13.1-7.9 0-18 6.2-26.8 13.1-4.2 4.6-7.7 8.3-10.2 11.2-1.2 1.4-3 2.5-2.8 3.3-1.2.4-.5.7-.7.9l-.2.3c-2.1 2.8-5.7 3.9-8.9 2.8-3.3-1.1-6.4-4.2-6.4-7.6 0-17.9 7.6-35.6 17.5-48.8 9.8-13 23.9-23.2 38.5-23.2 16.4 0 30.5 10.2 40.3 23.2 9.9 13.2 15.7 30.9 15.7 48.8 0 3.4-1.3 6.5-4.6 7.6-3.2 1.1-6.8 0-8.9-2.8zm160 0-.2-.3c-.2-.2-.4-.5-.7-.9-.7-.8-1.6-1.9-2.8-3.3-2.5-2.9-6-6.6-10.2-11.2-8.8-6.9-18.9-13.1-27.7-13.1s-18.9 6.2-27.7 13.1c-4.2 4.6-7.7 8.3-10.2 11.2-1.2 1.4-3 2.5-2.8 3.3-1.2.4-.5.7-.7.9l-.2.3c-2.1 2.8-5.7 3.9-8.9 2.8-3.3-1.1-5.5-4.2-5.5-8.5 0-17 6.7-34.7 16.6-47.9 9.8-13 23.9-24.1 39.4-24.1s29.6 11.1 39.4 24.1c9.9 13.2 16.6 30.9 16.6 47.9 0 4.3-2.2 7.4-5.5 8.5-3.2 1.1-6.8 0-8.9-2.8z"/></svg>

<svg xmlns="http://www.w3.org/2000/svg" viewBox="0 0 640 512"><!--! Font Awesome Free 6.2.1 by @fontawesome - https://fontawesome.com License - https://fontawesome.com/license/free (Icons: CC BY 4.0, Fonts: SIL OFL 1.1, Code: MIT License) Copyright 2022 Fonticons, Inc. --><path d="M519.4 334.4C522.7 342.5 527.8 352.1 535.9 361.1C539.9 365 544.1 368.4 548.6 371.4C506.4 454.8 419.9 512 319.1 512C220.1 512 133.6 454.8 91.4 371.4C95.87 368.4 100.1 365 104.1 361.1C112.2 352.1 117.3 342.5 120.6 334.4C121.8 331.5 122.9 328.6 123.9 325.5C152.5 406.2 229.5 464 319.1 464C410.5 464 487.5 406.2 516.1 325.5C517.1 328.6 518.2 331.5 519.4 334.4V334.4zM319.1 47.1C218.6 47.1 134.2 120.5 115.7 216.5C109.1 213.4 101.4 212.2 93.4 213.3C86.59 214.3 77.18 215.7 66.84 217.7C85.31 94.5 191.6 0 319.1 0C448.4 0 554.7 94.5 573.2 217.7C562.8 215.7 553.4 214.3 546.6 213.3C538.6 212.2 530.9 213.4 524.2 216.5C505.8 120.5 421.4 48 319.1 48V47.1zM78.5 341.1C59.98 356.7 32.01 355.5 14.27 337.7C-4.442 319-4.825 288.9 13.55 270.6C22.19 261.9 43.69 255.4 64.05 250.1C77.02 248.2 89.53 246.2 97.94 245C103.3 244.2 107.8 248.7 106.1 254.1C103.9 275.6 95.58 324.3 81.43 338.4C80.49 339.4 79.51 340.3 78.5 341.1V341.1zM561.5 341.1C560.7 340.5 559.1 339.8 559.2 339.1C559 338.9 558.8 338.7 558.6 338.4C544.4 324.3 536.1 275.6 533 254.1C532.2 248.7 536.7 244.2 542.1 245C543.1 245.2 544.2 245.3 545.4 245.5C553.6 246.7 564.6 248.5 575.1 250.1C596.3 255.4 617.8 261.9 626.4 270.6C644.8 288.9 644.4 319 625.7 337.7C607.1 355.5 580 356.7 561.5 341.1L561.5 341.1zM319.9 399.1C269.6 399.1 225.5 374.6 200.9 336.5C190.5 320.4 207.7 303.1 226.3 308.4C255.3 315.1 286.8 318.8 319.9 318.8C353 318.8 384.6 315.1 413.5 308.4C432.2 303.1 449.4 320.4 438.1 336.5C414.4 374.6 370.3 399.1 319.9 399.1zM281.6 228.8L281.4 228.5C281.2 228.3 281 228 280.7 227.6C280 226.8 279.1 225.7 277.9 224.3C275.4 221.4 271.9 217.7 267.7 213.1C258.9 206.2 248.8 200 239.1 200C231.2 200 221.1 206.2 212.3 213.1C208.1 217.7 204.6 221.4 202.1 224.3C200.9 225.7 199.1 226.8 199.3 227.6C198.1 228 198.8 228.3 198.6 228.5L198.4 228.8L198.4 228.8C196.3 231.6 192.7 232.7 189.5 231.6C186.2 230.5 183.1 227.4 183.1 224C183.1 206.1 190.7 188.4 200.6 175.2C210.4 162.2 224.5 152 239.1 152C255.5 152 269.6 162.2 279.4 175.2C289.3 188.4 295.1 206.1 295.1 224C295.1 227.4 293.8 230.5 290.5 231.6C287.3 232.7 283.7 231.6 281.6 228.8L281.6 228.8zM441.6 228.8L441.6 228.8L441.4 228.5C441.2 228.3 441 228 440.7 227.6C440 226.8 439.1 225.7 437.9 224.3C435.4 221.4 431.9 217.7 427.7 213.1C418.9 206.2 408.8 200 400 200C391.2 200 381.1 206.2 372.3 213.1C368.1 217.7 364.6 221.4 362.1 224.3C360.9 225.7 359.1 226.8 359.3 227.6C358.1 228 358.8 228.3 358.6 228.5L358.4 228.8L358.4 228.8C356.3 231.6 352.7 232.7 349.5 231.6C346.2 230.5 344 227.4 344 223.1C344 206.1 350.7 188.4 360.6 175.2C370.4 162.2 384.5 151.1 400 151.1C415.5 151.1 429.6 162.2 439.4 175.2C449.3 188.4 456 206.1 456 223.1C456 227.4 453.8 230.5 450.5 231.6C447.3 232.7 443.7 231.6 441.6 228.8V228.8z"/></svg>
